X:1
T:Title
%%score 1 { 2 | 3 }
L:1/8
Q:1/4=95
M:4/4
K:F
V:1 treble nm="Grand Piano, Soprano"
V:2 treble nm="Choir Pad, The Midnight Cry (Crosby)"
V:3 bass 
V:1
 [Ac]>[GB] [FA]2 [Ec]>[EB] [EG]2 | [EA]>[EG] [DF]2 [DF]>[B,D] [A,C]2- | %2
w: By~John~Robson~Sweney * * * * *||
 [A,C]C [CF]2 [CF]>[FA] [Ac]2 | [Fc]>[FA] [EG]6 | [Ec]>[GB] [FA]2 [Ec]>[EB] [EG]2 | %5
w: |||
 [EA]>[EG] [DF]2 [DF]>[B,D] [A,C]2- | [A,C]C [CF]2 [FA]>[Fd] [Fc]2 | [EG]>[EA] F6 | %8
w: |||
 [FA]>[FA] [FG]2 [FG]>[FG] [Fd]2 | [Fd]>[Ge] [Fd][Ec] [Ec][CE] [EG]2- | %10
w: ||
 [EG][EG] [DG]2 [=B,D]>[CE] [DF]2 | [G=B]>[FA] [EG]4 [CE]2 | [EG]>[EG] [FG]2 [FG]>[FG] [Fd]2 | %13
w: |||
 [Fd]>[Ge] [Fd][Ec] [Ec][CE] [EG]2- | [EG][EG] [FA]2 [Fd]>[Fc] [Ec]2 | [D=B]>[FB] [Ec]6 | %16
w: |||
 [Ec]>[GB] [FA]2 [Ec]>[EB] [EG]2 | [EA]>[EG] [DF]2 [DF]>[B,D] [A,C]2- | %18
w: ||
 [A,C]C [CF]2 [CF]>[FA] [Ac]2 | [Fc]>[FA] [EG]6 | [Ec]>[GB] [FA]2 [Ac]>[GB] [EG]2 | %21
w: |||
 [EA]>[EG] [DF]2 [DF]>[B,D] [A,C]2- | [A,C]C [CF]2 [FA]>[Fd] [Fc]2 | [EG]>[EA] F6- | F2 z2 z4 |] %25
w: ||||
V:2
 C>C C2 C>G, C2 | C>[K:bass]B, A,2 B,>F, F,2- | F,A, A,2 A,>[K:treble]C C2 | C>C C6 | %4
 G,>C C2 C>G, C2 | C>[K:bass]B, A,2 B,>F, F,2- | F,A, A,2 C>B, A,2 | B,>[K:treble]C A,6 | %8
 C>C =B,2[K:bass] B,>B, B,2 | =B,>B, C2 G,G,[K:treble] C2- | CC =B,2 G,>[K:bass]G, G,2 | %11
 G,>=B, C4 G,2 | C>C =B,2 B,>B, B,2 | =B,>B, C2 G,G,[K:treble] C2- | CC C2 A,>[K:bass]_A, G,2 | %15
 G,>G, G,6 | G,>[K:treble]C C2 C>G, C2 | C>[K:bass]B, A,2 B,>F, F,2- | F,A, A,2 A,>[K:treble]C C2 | %19
 C>C C6 | G,>C C2 C>C C2 | C>[K:bass]B, A,2 B,>F, F,2- | F,A, A,2 C>B, A,2 | B,>C A,6- | %24
 A,2 z2 z4 |] %25
V:3
 F,>F, F,2 C,>C, C,2 | C,>C, D,2 B,,>B,, z2 | z F, F,2 F,>F, F,2 | A,>F, C,6 | %4
 C,>C, F,2 C,>C, C,2 | C,>C, D,2 B,,>B,, z2 | z F, F,2 F,>B,, C,2 | C,>C, F,6 | %8
 F,>F, G,2 G,>G, G,2 | G,>G, C,2 C,C, C,2- | C,C, G,,2 G,,>G,, G,,2 | G,,>G,, C,6 | %12
 C,>C, G,2 G,>G, G,2 | G,>G, C,2 C,C, C,2- | C,C, F,2 F,>F, z2 | G,,>G,, C,6 | %16
 C,>C, F,2 C,>C, C,2 | C,>C, D,2 B,,>B,, z2 | z F, F,2 F,>F, F,2 | A,>F, C,6 | %20
 C,>C, F,2 F,>F, C,2 | C,>C, D,2 B,,>B,, z2 | z F, F,2 F,>B,, C,2 | C,>C, F,6- | F,2 z2 z4 |] %25

